assets/img/about/mail.svg

<svg fill="none" height="23" viewBox="0 0 31 23" width="31" xmlns="http://www.w3.org/2000/svg"><g fill="#c6c6c6"><path d="m.00581254 3.54816 15.49418746 7.52944 15.4942-7.52944c-.0574-.95966-.49-1.86168-1.2094-2.52133-.7193-.659649-1.6709-1.02700625-2.6598-1.02682994h-23.25c-.98893-.00017631-1.94051.36718094-2.65984 1.02682994-.719338.65965-1.1519895 1.56167-1.20934746 2.52133z"/><path d="m31 7.75547-15.5 7.53323-15.5-7.53323v11.07763c0 .999.408258 1.957 1.13496 2.6634.7267.7064 1.71233 1.1032 2.74004 1.1032h23.25c1.0277 0 2.0133-.3968 2.74-1.1032s1.135-1.6644 1.135-2.6634z"/></g></svg>

<svg width="31" height="23" viewBox="0 0 31 23" fill="none" xmlns="http://www.w3.org/2000/svg">
<path d="M0.00581254 3.54816L15.5 11.0776L30.9942 3.54816C30.9368 2.5885 30.5042 1.68648 29.7848 1.02683C29.0655 0.367181 28.1139 -0.000176249 27.125 6.34363e-08H3.875C2.88607 -0.000176249 1.93449 0.367181 1.21516 1.02683C0.495822 1.68648 0.0631705 2.5885 0.00581254 3.54816Z" fill="#C6C6C6"/>
<path d="M31 7.75547L15.5 15.2887L0 7.75547V18.8331C0 19.8321 0.408258 20.7901 1.13496 21.4965C1.86166 22.2029 2.84729 22.5997 3.875 22.5997H27.125C28.1527 22.5997 29.1383 22.2029 29.865 21.4965C30.5917 20.7901 31 19.8321 31 18.8331V7.75547Z" fill="#C6C6C6"/>
</svg>
